X:1987
T:Thimble, The
M:4/4
L:1/8
R:reel
K:Gmaj
dc|:BG~G2 DG~G2|BGBd cBAc|BG~G2 DG~G2|A=FBF dFcF|
BG~G2 DG~G2|BGBd c2BA|(3Bcd ef g2ge|dBAc BG~G2:|
|:gc~c2 gcac|gB~B2 gBaB|(3fff fa fdef|gB~B2 gBaB|
gc~c2 gcac|gB~B2 gBaB|(3fff fa fdef|1gdef g2ef:|2gedB AcBA|
